tools/download-figma-icons/icons/outlined-medium/family-2.svg

<svg width="24" height="24" viewBox="0 0 24 24" fill="none" xmlns="http://www.w3.org/2000/svg">
<path d="M13.56 14.4926C14.4225 13.9004 15 12.8434 15 11.6214C15 9.76233 13.6575 8.24805 12 8.24805C10.3425 8.24805 9 9.76233 9 11.6214C9 12.8434 9.585 13.9079 10.455 14.5001C8.2725 15.2272 7.305 17.3262 7.155 17.6861C6.9 18.1733 6.5475 19.0504 6.9375 19.6951C7.0575 19.905 7.365 20.2498 7.995 20.2498H16.035C16.665 20.2498 16.965 19.905 17.0925 19.6951C17.475 19.0504 17.13 18.1733 16.875 17.6861C16.725 17.3337 15.7575 15.2197 13.56 14.5001V14.4926ZM12 9.74733C12.825 9.74733 13.5 10.5869 13.5 11.6214C13.5 12.6559 12.825 13.4955 12 13.4955C11.175 13.4955 10.5 12.6559 10.5 11.6214C10.5 10.5869 11.175 9.74733 12 9.74733ZM8.325 18.743C8.3625 18.6231 8.4225 18.4807 8.4975 18.3532L8.535 18.2708C8.5725 18.1658 9.57 15.7445 12.015 15.7445C14.46 15.7445 15.45 18.1583 15.495 18.2708L15.5325 18.3532C15.6 18.4807 15.66 18.6231 15.705 18.743H8.3325H8.325Z" fill="black"/>
<path d="M5.22001 15.745L1.53001 15.73C1.57501 15.5501 1.66501 15.3027 1.77751 15.0853L1.81501 15.0028C1.81501 15.0028 3.00001 11.9967 5.84251 11.9967H5.85751C6.33751 11.9967 6.79501 12.0867 7.23001 12.2516C7.61251 12.4016 8.04751 12.2141 8.19751 11.8243C8.34751 11.442 8.16001 11.0072 7.77001 10.8573C7.68751 10.8273 7.59751 10.7973 7.51501 10.7748C8.40001 10.1901 9.00001 9.11812 9.00001 7.88121C9.00001 6.02209 7.65751 4.50781 6.00001 4.50781C4.34251 4.50781 3.00001 6.01459 3.00001 7.87371C3.00001 9.05815 3.54751 10.1001 4.38001 10.6999C1.74751 11.442 0.592509 14.0283 0.435009 14.4256C0.150009 14.9728 -0.232491 15.9624 0.187509 16.6595C0.315009 16.8769 0.630009 17.2293 1.29001 17.2368L5.22001 17.2517C5.63251 17.2517 5.97001 16.9144 5.97001 16.5021C5.97001 16.0898 5.64001 15.7525 5.22001 15.7525V15.745ZM6.00001 5.9996C6.82501 5.9996 7.50001 6.8392 7.50001 7.87371C7.50001 8.90822 6.82501 9.74782 6.00001 9.74782C5.17501 9.74782 4.50001 8.90822 4.50001 7.87371C4.50001 6.8392 5.17501 5.9996 6.00001 5.9996Z" fill="black"/>
<path d="M23.565 14.4253C23.4075 14.0355 22.2525 11.4492 19.62 10.6995C20.445 10.0998 21 9.05783 21 7.87339C21 6.01428 19.6575 4.5 18 4.5C16.3425 4.5 15 6.01428 15 7.87339C15 9.1103 15.6 10.1823 16.485 10.767C16.4025 10.797 16.3125 10.8195 16.23 10.8495C15.8475 10.9994 15.6525 11.4342 15.8025 11.8165C15.9525 12.1988 16.3875 12.3937 16.77 12.2438C17.1975 12.0789 17.6625 11.9889 18.1425 11.9889H18.1575C20.985 11.9889 22.14 14.8751 22.185 14.995L22.2225 15.0775C22.3425 15.3024 22.4325 15.5497 22.47 15.7297L18.78 15.7446C18.3675 15.7446 18.03 16.082 18.03 16.4943C18.03 16.9066 18.3675 17.2439 18.78 17.2439L22.71 17.2289C23.37 17.2289 23.685 16.8691 23.8125 16.6517C24.2325 15.9545 23.85 14.9725 23.565 14.4178V14.4253ZM18 5.99929C18.825 5.99929 19.5 6.83889 19.5 7.87339C19.5 8.9079 18.825 9.7475 18 9.7475C17.175 9.7475 16.5 8.9079 16.5 7.87339C16.5 6.83889 17.175 5.99929 18 5.99929Z" fill="black"/>
</svg>

<svg width="24" height="24" viewBox="0 0 24 24" fill="none" xmlns="http://www.w3.org/2000/svg"><path d="M13.56 14.493c.862-.593 1.44-1.65 1.44-2.872 0-1.859-1.342-3.373-3-3.373s-3 1.514-3 3.373c0 1.222.585 2.287 1.455 2.88-2.182.726-3.15 2.825-3.3 3.185-.255.487-.607 1.364-.218 2.01.12.209.428.554 1.058.554h8.04c.63 0 .93-.345 1.058-.555.382-.645.037-1.522-.218-2.009-.15-.352-1.117-2.466-3.315-3.186v-.007ZM12 9.747c.825 0 1.5.84 1.5 1.874 0 1.035-.675 1.874-1.5 1.874s-1.5-.84-1.5-1.874c0-1.034.675-1.874 1.5-1.874Zm-3.675 8.996c.038-.12.098-.262.173-.39l.037-.082c.037-.105 1.035-2.527 3.48-2.527 2.445 0 3.435 2.414 3.48 2.527l.038.082c.067.128.127.27.172.39h-7.38ZM5.22 15.745l-3.69-.015a3.19 3.19 0 0 1 .248-.645l.037-.082S3 11.997 5.843 11.997h.015c.48 0 .937.09 1.372.255a.745.745 0 0 0 .968-.428.744.744 0 0 0-.428-.967 3.357 3.357 0 0 0-.255-.082C8.4 10.19 9 9.118 9 7.88c0-1.859-1.342-3.373-3-3.373-1.657 0-3 1.507-3 3.366 0 1.184.548 2.226 1.38 2.826-2.632.742-3.787 3.328-3.945 3.726-.285.547-.667 1.536-.247 2.234.127.217.442.57 1.102.577l3.93.015c.413 0 .75-.338.75-.75s-.33-.75-.75-.75v-.007ZM6 6c.825 0 1.5.84 1.5 1.874 0 1.034-.675 1.874-1.5 1.874s-1.5-.84-1.5-1.874C4.5 6.839 5.175 6 6 6Zm17.565 8.425c-.158-.39-1.313-2.976-3.945-3.726.825-.6 1.38-1.641 1.38-2.826C21 6.014 19.657 4.5 18 4.5s-3 1.514-3 3.373c0 1.237.6 2.31 1.485 2.894-.082.03-.172.053-.255.083a.75.75 0 0 0-.428.966.75.75 0 0 0 .968.428 3.815 3.815 0 0 1 1.372-.255h.015c2.828 0 3.983 2.886 4.028 3.006l.038.083c.12.224.21.472.247.652l-3.69.015a.752.752 0 0 0-.75.75c0 .412.337.749.75.749l3.93-.015c.66 0 .975-.36 1.102-.577.42-.698.038-1.68-.247-2.234v.007ZM18 6c.825 0 1.5.84 1.5 1.874 0 1.035-.675 1.875-1.5 1.875s-1.5-.84-1.5-1.875C16.5 6.84 17.175 6 18 6Z" fill="currentColor"/></svg>
